X: 130
T:Mrs Colonel Forbes' Strathspey
B:William Marshall's Scottish Airs, Melodies, Strathspeys, Reels &c (1822)
C:William Marshall
L:1/8
M:C
O:Scotland
R:Strathspey
Z:Clark Bernst + Richard Robinson
%%Page:45 - 1
F:http://richardrobinson.tunebook.org.uk/tune/3973
%%TBL:{"version":1,"type":"tune","id":"3973"}
K:C
%%staves {1 2}
V:1
e | \
c2 (G>E) Dd-d>[BG] | c<G!trill!A>G c2 (ce) | \
c>G A/G/F/E/ Dd-d>e | C<CE>G c2 c :|
e | \
c>ge>g a/g/f/e/ de | c<ge<g c<ge<g | \
f<ae<g !trill!d>c d<e | (G<c)(c>d) {f}e2 (de) |
c>ge>g a/g/f/e/ de | c<ge<g c<af<a | \
g<c'e<g d>c !trill!d<e | (G<c)(c>d) {f}e2 d |]
V:2 middle=d clef=bass
L:1/4
z/ | ccgg | cccc | ccgg | cgcc/ :| \
z/ | c'c'c'g | c'c'c'c' | d'c'gg | c'gcc | c'c'c'g | c'c'ff | ecgg | c'gcg/ |]

